packages/assets/static/images/icons/bold/stack-plus--bold.svg

<svg width="24" height="24" viewBox="0 0 24 24" xmlns="http://www.w3.org/2000/svg">
<path d="M22.3124 18.7497C22.3124 19.0481 22.1939 19.3343 21.9829 19.5452C21.772 19.7562 21.4858 19.8747 21.1874 19.8747H20.4374V20.6247C20.4374 20.9231 20.3189 21.2093 20.1079 21.4202C19.897 21.6312 19.6108 21.7497 19.3124 21.7497C19.0141 21.7497 18.7279 21.6312 18.5169 21.4202C18.306 21.2093 18.1874 20.9231 18.1874 20.6247V19.8747H17.4374C17.1391 19.8747 16.8529 19.7562 16.6419 19.5452C16.431 19.3343 16.3124 19.0481 16.3124 18.7497C16.3124 18.4514 16.431 18.1652 16.6419 17.9543C16.8529 17.7433 17.1391 17.6247 17.4374 17.6247H18.1874V16.8747C18.1874 16.5764 18.306 16.2902 18.5169 16.0793C18.7279 15.8683 19.0141 15.7497 19.3124 15.7497C19.6108 15.7497 19.897 15.8683 20.1079 16.0793C20.3189 16.2902 20.4374 16.5764 20.4374 16.8747V17.6247H21.1874C21.4858 17.6247 21.772 17.7433 21.9829 17.9543C22.1939 18.1652 22.3124 18.4514 22.3124 18.7497ZM20.2499 11.0276L11.8124 15.9476L3.37963 11.0276C3.12252 10.8895 2.82182 10.8568 2.54103 10.9363C2.26024 11.0158 2.02132 11.2012 1.87472 11.4536C1.72812 11.7059 1.6853 12.0053 1.75531 12.2886C1.82532 12.5719 2.00268 12.8169 2.24994 12.9719L11.2499 18.2219C11.4221 18.3224 11.6178 18.3754 11.8171 18.3754C12.0164 18.3754 12.2122 18.3224 12.3843 18.2219L21.3843 12.9719C21.512 12.8975 21.6237 12.7985 21.7132 12.6809C21.8026 12.5632 21.868 12.4291 21.9056 12.2861C21.9432 12.1432 21.9523 11.9942 21.9324 11.8478C21.9124 11.7013 21.8638 11.5602 21.7893 11.4326C21.7148 11.3049 21.6159 11.1931 21.4983 11.1037C21.3806 11.0142 21.2464 10.9489 21.1035 10.9112C20.9606 10.8736 20.8116 10.8646 20.6652 10.8845C20.5187 10.9045 20.3776 10.9531 20.2499 11.0276ZM1.68744 7.49975C1.68781 7.30262 1.73996 7.10906 1.83868 6.93843C1.9374 6.76781 2.07922 6.62612 2.24994 6.52756L11.2499 1.27756C11.4223 1.17763 11.6179 1.125 11.8171 1.125C12.0163 1.125 12.212 1.17763 12.3843 1.27756L21.3843 6.52756C21.5544 6.62658 21.6955 6.76846 21.7935 6.93905C21.8916 7.10964 21.9432 7.30298 21.9432 7.49975C21.9432 7.69652 21.8916 7.88985 21.7935 8.06044C21.6955 8.23103 21.5544 8.37292 21.3843 8.47194L12.3843 13.7219C12.2122 13.8224 12.0164 13.8754 11.8171 13.8754C11.6178 13.8754 11.4221 13.8224 11.2499 13.7219L2.24994 8.47194C2.07922 8.37337 1.9374 8.23169 1.83868 8.06106C1.73996 7.89044 1.68781 7.69687 1.68744 7.49975ZM5.04556 7.49975L11.8124 11.4476L18.5793 7.49975L11.8124 3.55193L5.04556 7.49975ZM12.7499 19.9029L11.8124 20.4476L3.37963 15.5276C3.12252 15.3895 2.82182 15.3568 2.54103 15.4363C2.26024 15.5158 2.02132 15.7012 1.87472 15.9536C1.72812 16.2059 1.6853 16.5053 1.75531 16.7886C1.82532 17.0719 2.00268 17.3169 2.24994 17.4719L11.2499 22.7219C11.4221 22.8224 11.6178 22.8754 11.8171 22.8754C12.0164 22.8754 12.2122 22.8224 12.3843 22.7219L13.8843 21.8463C14.0119 21.7718 14.1236 21.6729 14.213 21.5553C14.3024 21.4376 14.3677 21.3035 14.4053 21.1606C14.4429 21.0177 14.4519 20.8688 14.4319 20.7224C14.412 20.576 14.3633 20.435 14.2888 20.3074C14.2144 20.1798 14.1155 20.0681 13.9978 19.9787C13.8802 19.8893 13.7461 19.824 13.6032 19.7864C13.4603 19.7489 13.3114 19.7398 13.165 19.7598C13.0186 19.7798 12.8775 19.8284 12.7499 19.9029Z"/>
</svg>

<svg viewBox="0 0 24 24" xmlns="http://www.w3.org/2000/svg" aria-hidden="true" fill="currentColor"><path d="M22.312 18.75a1.125 1.125 0 0 1-1.125 1.125h-.75v.75a1.125 1.125 0 1 1-2.25 0v-.75h-.75a1.125 1.125 0 0 1 0-2.25h.75v-.75a1.125 1.125 0 0 1 2.25 0v.75h.75a1.125 1.125 0 0 1 1.125 1.125m-2.062-7.722-8.438 4.92-8.432-4.92a1.125 1.125 0 0 0-1.13 1.944l9 5.25a1.13 1.13 0 0 0 1.134 0l9-5.25a1.126 1.126 0 1 0-1.134-1.944M1.687 7.5a1.13 1.13 0 0 1 .563-.972l9-5.25a1.13 1.13 0 0 1 1.134 0l9 5.25a1.124 1.124 0 0 1 0 1.944l-9 5.25a1.13 1.13 0 0 1-1.134 0l-9-5.25a1.13 1.13 0 0 1-.563-.972m3.359 0 6.766 3.948L18.58 7.5l-6.767-3.948zm7.704 12.403-.938.545-8.432-4.92a1.125 1.125 0 0 0-1.13 1.944l9 5.25a1.13 1.13 0 0 0 1.134 0l1.5-.876a1.126 1.126 0 0 0-1.134-1.943"/></svg>
